build/img/logotype-desktop.svg

<svg width="58" height="22" viewBox="0 0 58 22" fill="none" xmlns="http://www.w3.org/2000/svg">
<path d="M27.7339 0L22.0582 17.0732H17.7457L13.9289 5.51219L9.98817 17.0732H5.70045L0 0H4.1638L8.07976 12L12.1692 0H15.8869L19.8524 12.0976L23.8923 0H27.7339Z" fill="#141517"/>
<path d="M34.0886 3.7561C36.154 3.7561 37.7402 4.2439 38.8473 5.21951C39.9543 6.17886 40.5078 7.63414 40.5078 9.58536V17.0732H36.8893V15.439C36.1623 16.6585 34.8074 17.2683 32.8246 17.2683C31.8002 17.2683 30.9079 17.0976 30.1479 16.7561C29.4043 16.4146 28.8343 15.9431 28.4378 15.3415C28.0412 14.7398 27.8429 14.0569 27.8429 13.2927C27.8429 12.0732 28.3056 11.1138 29.2309 10.4146C30.1727 9.71545 31.6184 9.36585 33.5681 9.36585H36.6414C36.6414 8.53658 36.3853 7.90244 35.8731 7.46342C35.3609 7.00813 34.5926 6.78049 33.5681 6.78049C32.8577 6.78049 32.1554 6.89431 31.4615 7.12195C30.784 7.33333 30.2057 7.62602 29.7265 8L28.3386 5.34146C29.0656 4.8374 29.9331 4.44715 30.941 4.17073C31.9654 3.89431 33.0146 3.7561 34.0886 3.7561ZM33.7912 14.7073C34.4521 14.7073 35.0387 14.561 35.5509 14.2683C36.0631 13.9593 36.4266 13.5122 36.6414 12.9268V11.5854H33.9895C32.4033 11.5854 31.6102 12.0976 31.6102 13.122C31.6102 13.6098 31.8002 14 32.1802 14.2927C32.5768 14.5691 33.1138 14.7073 33.7912 14.7073Z" fill="#141517"/>
<path d="M57 3.95122L50.9774 17.878C50.366 19.3902 49.6059 20.4553 48.6972 21.0732C47.8049 21.6911 46.7227 22 45.4504 22C44.7564 22 44.0707 21.8943 43.3933 21.6829C42.7158 21.4715 42.1623 21.1789 41.7327 20.8049L43.1454 18.0976C43.4429 18.3577 43.7816 18.561 44.1616 18.7073C44.5582 18.8537 44.9465 18.9268 45.3265 18.9268C45.8552 18.9268 46.2848 18.7967 46.6153 18.5366C46.9457 18.2927 47.2432 17.878 47.5075 17.2927L47.5571 17.1707L41.7823 3.95122H45.7726L49.5151 12.8537L53.2823 3.95122H57Z" fill="#141517"/>
<path d="M57.0173 3.9502L50.9946 17.877C50.3833 19.3892 49.6232 20.4543 48.7145 21.0721C47.8222 21.69 46.74 21.999 45.4677 21.999C44.7737 21.999 44.088 21.8933 43.4106 21.6819C42.7331 21.4705 42.1796 21.1778 41.75 20.8039L43.1627 18.0965C43.4601 18.3567 43.7989 18.5599 44.1789 18.7063C44.5754 18.8526 44.9637 18.9258 45.3438 18.9258C45.8725 18.9258 46.3021 18.7957 46.6326 18.5356C46.963 18.2917 47.2604 17.877 47.5248 17.2917L47.5744 17.1697L49.5323 12.8526L53.2996 3.9502H57.0173Z" fill="#FE7865"/>
</svg>

<svg width="58" height="22" fill="none" xmlns="http://www.w3.org/2000/svg"><path d="M27.734 0l-5.676 17.073h-4.312l-3.817-11.56-3.94 11.56H5.7L0 0h4.164L8.08 12l4.09-12h3.717l3.965 12.098L23.892 0h3.842zm6.355 3.756c2.065 0 3.651.488 4.758 1.464 1.107.959 1.66 2.414 1.66 4.365v7.488H36.89V15.44c-.727 1.22-2.082 1.83-4.064 1.83-1.025 0-1.917-.171-2.677-.513-.744-.341-1.314-.813-1.71-1.415-.397-.601-.595-1.284-.595-2.048 0-1.22.463-2.18 1.388-2.878.942-.7 2.387-1.05 4.337-1.05h3.073c0-.828-.256-1.463-.768-1.902-.512-.455-1.28-.683-2.305-.683a6.72 6.72 0 00-2.106.342c-.678.211-1.256.504-1.735.878L28.34 5.342c.727-.504 1.594-.894 2.602-1.17a12.029 12.029 0 013.148-.415zm-.298 10.951c.661 0 1.248-.146 1.76-.439a2.535 2.535 0 001.09-1.341v-1.342H33.99c-1.587 0-2.38.513-2.38 1.537 0 .488.19.878.57 1.17.397.277.934.415 1.611.415zM57 3.951l-6.023 13.927c-.611 1.512-1.371 2.577-2.28 3.195-.892.618-1.974.927-3.247.927-.694 0-1.38-.106-2.057-.317-.677-.212-1.23-.504-1.66-.878l1.412-2.707a3.37 3.37 0 002.181.829c.53 0 .959-.13 1.29-.39.33-.244.627-.659.892-1.244l.05-.122-5.776-13.22h3.99l3.743 8.903 3.767-8.903H57z" fill="#141517"/><path d="M57.017 3.95l-6.022 13.927c-.612 1.512-1.372 2.577-2.28 3.195-.893.618-1.975.927-3.247.927-.694 0-1.38-.106-2.057-.317-.678-.211-1.231-.504-1.661-.878l1.413-2.707a3.368 3.368 0 002.18.829c.53 0 .96-.13 1.29-.39.33-.244.627-.659.892-1.244l.05-.122 1.957-4.317L53.3 3.95h3.717z" fill="#FE7865"/></svg>
